X:618
%%etbk:tnset id:362,pos:1,rep:3x,ant:
%%etbk:color #ffccbf
%%etbk:pldat 2015-09-10T15:57,2015-09-09T16:11,2015-09-08T18:31,2015-09-07T18:56,2015-08-05T16:47,2015-07-30T18:13,2015-07-23T18:33,2015-06-26T16:50,2015-06-17T16:02,2015-06-16T15:42,2015-05-07T18:34,2015-04-16T18:30,2015-04-15T15:51,2015-04-13T18:32,2015-04-12T10:16,2015-04-11T13:56,2015-04-08T16:56,2015-03-19T18:19,2015-03-18T16:20,2015-03-16T18:40,2015-03-15T15:09,2015-03-12T18:05,2015-03-04T15:46,2015-02-22T14:34,2015-02-21T15:41,2015-02-18T16:59,2015-02-17T15:33,2015-02-14T13:32,2015-02-14T13:30,2015-02-13T18:08,2015-02-11T16:38,2015-02-10T15:27,2015-02-04T15:39,2015-02-02T18:25,2015-01-31T15:44,2015-01-27T16:57,2015-01-25T15:50,2015-01-21T17:12,2015-01-14T16:28,2015-01-13T15:55,2015-01-12T18:43,2015-01-10T15:13,2015-01-07T17:16,2015-01-06T18:09,2014-12-30T17:19,2014-12-29T16:24,2014-12-28T13:18,2014-12-27T14:19,2014-12-26T15:27,2014-12-20T13:51,2014-12-15T15:45,2014-12-14T15:15,2014-12-10T15:43,2014-12-09T16:35,2014-12-08T18:06,2014-12-06T15:04,2014-12-04T18:15,2014-12-03T15:52,2014-12-02T16:58,2014-12-01T18:33,2014-11-26T15:41,2014-11-25T18:43,2014-11-22T15:03,2014-11-19T15:38,2014-11-17T18:29,2014-11-15T15:29,2014-11-13T18:20,2014-11-12T18:22
T:Leila's Birthday
C:Hanneke Cassel
Z: Piano Box Version by Martin Fleischmann
H: Created 2014-11-17 /  Last Modified  2015-01-25
L:1/8
R: reel
M:C
K: Gmin
%%score (M1) (M2)
V:M1  clef=treble  
V:M2  clef=treble    
[V:M1]|:"gm" !5!d !turn!!1!G3 !3!BA!1!G!2!F | !3!G !turn!D3 !4!ABGE | "cm" !1!C!2!E!1!G!5!e d2 e2 | "F" !1!EF!5!d!1!F cFBc |
[V:M2]|:"Gm" G,2 G2 z F z2 |"Gm" G2 z G z2 G2 |"Cm/Eb" z2 E2 EE z2 |"F" z2 F2 FF z2 |
[V:M1]"gm" d !turn!G3 BAGF |G !turn!D3 ABGE |1 "cm"CE!3!G!4!B !5!c2 !turn!!1!E2 | "F" !4!cBAB d2 Bc :|2"cm"!1!CEG!5!c !2!B2 c2 |"F" !turn!!1!E2 !2!c!1!F !3!dcd!4!f ||
[V:M2]"Gm" z2 [DGB]2 z [CFA] z2 |"Gm" [DGB]2 z [DGB] z2 [DGB]2 |1"Cm/Eb" z2 [B,EGB]2 [B,EGB][B,EGB] z2 | "F" z2 [CFAc]2 [CFAc][CFAc] z2:|2"Cm/Eb" z2 [B,EGB]2 [B,EGB][B,EGB] z2 | "F" z2 [CFAc]2 [CFAc][CFAc] z2 ||
|:"gm" !5!g2 !3!gg b2"Bb" !2!f2- | ffbf bagf | "cm" !3!gfga baba | !3!gfgb "F" !1!dcdf 
|1"gm" g2 gg b2"Bb" f2- | ffbf bagf |"cm" !5!gfed edef |  g2 !3!d!2!B"F" !1!c2 df :|
|2"cm" g2 !1!d!2!B !3!c2 cd |"gm" !1!G2 !4!dG !3!cdcB |"cm" !3!cd !1!E2 !4!dcB!3!c | "F"!1!c!2!d!4!fd !5!gfdc |]


